src/images/profile.svg

<svg width="20" height="24" viewBox="0 0 20 24" fill="none" xmlns="http://www.w3.org/2000/svg">
<path d="M9.97011 12.1878C8.38811 12.1878 6.61944 12.0128 5.49011 10.7225C4.54044 9.63748 4.23361 7.95981 4.55095 5.59848C4.99428 2.30148 7.01961 0.333313 9.97128 0.333313C12.9229 0.333313 14.9494 2.30148 15.3916 5.59848C15.7089 7.95981 15.4009 9.63514 14.4513 10.7225C13.3196 12.0128 11.5521 12.1867 9.97128 12.1867L9.97011 12.1878ZM16.7939 23.6795H3.14628C2.37278 23.6795 1.68795 23.3528 1.22128 22.7625C0.728946 22.1395 0.549279 21.2808 0.742946 20.4665C1.71595 16.3482 5.50994 13.47 9.96894 13.47C14.4279 13.47 18.2219 16.347 19.1973 20.4665C19.3886 21.2808 19.2089 22.1395 18.7166 22.7613C18.2499 23.3505 17.5674 23.6771 16.7939 23.6771V23.6795Z" fill="black"/>
</svg>

<svg width="20" height="24" fill="none" xmlns="http://www.w3.org/2000/svg"><path d="M9.97 12.188c-1.582 0-3.35-.175-4.48-1.466-.95-1.085-1.256-2.762-.939-5.124C4.994 2.301 7.02.333 9.97.333c2.952 0 4.978 1.968 5.42 5.265.318 2.362.01 4.037-.94 5.125-1.131 1.29-2.899 1.464-4.48 1.464Zm6.824 11.492H3.146a2.404 2.404 0 0 1-1.925-.918C.73 22.14.55 21.281.743 20.466c.973-4.118 4.767-6.996 9.226-6.996 4.459 0 8.253 2.877 9.228 6.996.192.815.012 1.674-.48 2.295-.467.59-1.15.916-1.923.916v.003Z" fill="#000"/></svg>
